X:19018
T:Xiraldilla (CT 238) (Arrg.)
R:Xiraldilla
C:Tradicional
S:Música Tradicional Asturiana, (C) Tello & Tito. Asturies, 2001.
S:http://pagina.de/MusTradAst <telloytito@asturies.org>
N:Xiraldilla, dictada por Aurelio García Sánchez, de veintidós años, de Mieres.
O:Mieres
A:Asturies
G:Arrg.
Z:Cancioneru de Torner 238
M:2/4
L:1/8
Q:1/4=160
W:Dísteme tacha de probe,
W:digo la verdá que sóilo;
W:les tus rentes y les míes
W:cobra un mismo mayordomo.
W:
W:Ronda si sabes,
W:ronda bien los arrabales,
W:que cuando yo rondo,
W:rondo arrabales y todo.
W:Ronda amor.
K:G
|"G"B3 c|"G"(d3 B)|"C"c2 Bc|"G"d2 d2|"G"B3 c|"G"(d3 B)|"Am"c2 BA|"G"G2 G2|
 "G"B3 c|"G"(d3 B)|"C"c2 Bc|"G"d2 d2|"G"B3 c|"G"d3 B|"Am"c2 BA|"G"G2 GF|
"G"G2 "D"AF|"G"G2 z2|"G"B3 c|"G"(d3 B)|"Am"c2 BA|"G"G2 GF|
"G"G2 "D"AF|"G"G2 G2|"G"B3 c|"G"(d3 B)|"Am"c2 BA|"G"GG AF|"G"G2 z2||


